src/pos-icons/format-text-wrapping-wrap.svg

<svg height="24" viewBox="0 0 24 24" width="24" xmlns="http://www.w3.org/2000/svg"><path d="m7 21h-2v-18h2zm12-18h-2v18h2zm-6 5h-4v2h3.97c.17 0 1.03.16 1.03 2s-.86 2-1 2h-2v-2l-3 3 3 3v-2h2c1.04 0 3-.84 3-4s-1.96-4-3-4z"/></svg>

<?xml version="1.0" encoding="UTF-8"?><!DOCTYPE svg PUBLIC "-//W3C//DTD SVG 1.1//EN" "http://www.w3.org/Graphics/SVG/1.1/DTD/svg11.dtd"><svg xmlns="http://www.w3.org/2000/svg" xmlns:xlink="http://www.w3.org/1999/xlink" version="1.1" id="mdi-format-text-wrapping-wrap" width="24" height="24" viewBox="0 0 24 24"><path d="M7,21H5V3H7V21M19,3H17V21H19V3M13,8H9V10H12.97C13.14,10 14,10.16 14,12C14,13.84 13.14,14 13,14H11V12L8,15L11,18V16H13C14.04,16 16,15.16 16,12C16,8.84 14.04,8 13,8Z" /></svg>
